X:42
T:Reel Saint Paul
M:4/4
L:1/8
K:A
d |: c2ec A2a2 | fgaf dfed | cdec A2Bc | dBBA B3d |
c2ec A2a2 | fgaf dfed | cdec A2Bc |1 dBGB A3d :|2 dBGB A3c |:
d2Ad f2ed | ceAc e2dc | BABc d2cB | ABcd e3c |
d2Ad f2ed | ceAc e2dc | BABc d2cB |1 Aaec A3c :|2 Aaec A4 |]

